src/pos-icons/helicopter.svg

<svg height="24" viewBox="0 0 24 24" width="24" xmlns="http://www.w3.org/2000/svg"><path d="m3 3h14v2h-14zm20 3v4.5l-8.25 1.7c.16.4.25.84.25 1.3 0 1.4-.82 2.6-2 3.16v.34 2h3v2h-12a3 3 0 0 1 -3-3v-1h2v1a1 1 0 0 0 1 1h1v-2.26c-1.75-.61-3-2.28-3-4.24 0-2.5 2-4.5 4.5-4.5h2.5v-2h2v2h10v-2zm-12 13v-2h-4v2zm-3.5-9c-1.38 0-2.5.9-2.5 2s1.12 2 2.5 2 2.5-.9 2.5-2-1.12-2-2.5-2z"/></svg>

<?xml version="1.0" encoding="UTF-8"?><!DOCTYPE svg PUBLIC "-//W3C//DTD SVG 1.1//EN" "http://www.w3.org/Graphics/SVG/1.1/DTD/svg11.dtd"><svg xmlns="http://www.w3.org/2000/svg" xmlns:xlink="http://www.w3.org/1999/xlink" version="1.1" id="mdi-helicopter" width="24" height="24" viewBox="0 0 24 24"><path d="M3,3H17V5H3V3M23,6V10.5L14.75,12.2C14.91,12.6 15,13.04 15,13.5C15,14.9 14.18,16.1 13,16.66V17L13,19H16V21H4A3,3 0 0,1 1,18V17H3V18A1,1 0 0,0 4,19H5V16.74C3.25,16.13 2,14.46 2,12.5C2,10 4,8 6.5,8H9V6H11V8H21V6H23M11,19V17H7V19H11M7.5,10C6.12,10 5,10.9 5,12C5,13.1 6.12,14 7.5,14C8.88,14 10,13.1 10,12C10,10.9 8.88,10 7.5,10Z" /></svg>
